X: 1
T: Kate's Delight
R: jig
M: 6/8
L: 1/8
Z: 2010,2014 John Chambers <jc:trillian.mit.edu>
B: Longman ed. "Twenty Four Country Dances", p.25 London 1770
K: G
|: gdc  BAG | FGA DEF | GAB ABc  | BAG  FED |\
   gdc  cBA | FGA D2g | fed ed^c | dAF  D3 :|
|: de=f fed | ecG EDC | efg gfe  | fdA  FED |\
   gdc  BAG | FGA D2c | BAG AGF  | GDB, G,3 :|
% - - - - - - - - - - - - - - - - - - - - - - - - -
%%begintext align
%% First Cu: Cast off one Cu: four hands round with the third .| Cast up again and four
%% Hands round with the Second .|. Cross over One Cu: :|. whole Right and Left at the Top :|:
%%endtext
% - - - - - - - - - - - - - - - - - - - - - - - - -
